X:85
T:Portsmouth Hornpipe.  ThoH.085
Q:1/4=100
M:2/4
L:1/8
B:Thompson's Compleat Collection of 120 Favourite Hornpipes.
Z:Village Music Project, Simon Wilson 2016
O:England.
K:Cm
C|CG- GF/G/|EC- Cc/=B/|ce- ed/c/|dB- Be/d/|eg- gf/e/|fF- FB/A/|GF/E/ DE/D/|GG G:|
|:G|Ge- ed/e/|cA- AG/A/|Ff- fe/f/|dB- Bf/g/|af- fA/G/|AF- F f/e/|de/c/ Gc/=B/|cc c:|

